src/2-landmarks/subway-exterior--door-open.svg

<svg width="1300" height="1000" viewBox="0 0 1300 1000" fill="none" xmlns="http://www.w3.org/2000/svg"><path d="M1300 100H0v7h1300v-7Z" fill="#000"/><path fill-rule="evenodd" clip-rule="evenodd" d="M400 850v50H0v100h1300V900H900v-50h400v-7H900V220c0-11.046-8.954-20-20-20H420c-11.046 0-20 8.954-20 20v623H0v7h400Zm7-7V560h51c11.046 0 20-8.954 20-20V250c0-11.046-8.954-20-20-20h-51v-8c0-8.284 6.716-15 15-15h76v636h-91Zm486-283v283h-93V207h78c8.284 0 15 6.716 15 15v8h-53c-11.046 0-20 8.954-20 20v290c0 11.046 8.954 20 20 20h53Zm0 290h-93v50h93v-50Zm-100 50H505V207h288v693Zm-386-50h91v50h-91v-50Zm486-297V237h-51c-8.284 0-15 6.716-15 15v286c0 8.284 6.716 15 15 15h51Zm-437 0h-49V237h49c8.284 0 15 6.716 15 15v286c0 8.284-6.716 15-15 15Z" fill="#000"/><path d="M0 560v-7h328c8.284 0 15-6.716 15-15V252c0-8.284-6.716-15-15-15H0v-7h330c11.046 0 20 8.954 20 20v290c0 11.046-8.954 20-20 20H0Zm1300-7v7H970c-11.046 0-20-8.954-20-20V250c0-11.046 8.954-20 20-20h330v7H972c-8.284 0-15 6.716-15 15v286c0 8.284 6.716 15 15 15h328Z" fill="#000"/></svg>

<svg width="1300" height="1000" viewBox="0 0 1300 1000" fill="none" xmlns="http://www.w3.org/2000/svg">
<path d="M1300 100H0V107H1300V100Z" fill="black"/>
<path fill-rule="evenodd" clip-rule="evenodd" d="M400 850V900H0V1000H1300V900H900V850H1300V843H900V220C900 208.954 891.046 200 880 200H420C408.954 200 400 208.954 400 220V843H0V850H400ZM407 843V560H458C469.046 560 478 551.046 478 540V250C478 238.954 469.046 230 458 230H407V222C407 213.716 413.716 207 422 207H498V843H407ZM893 560V843H800V207H878C886.284 207 893 213.716 893 222V230H840C828.954 230 820 238.954 820 250V540C820 551.046 828.954 560 840 560H893ZM893 850H800V900H893V850ZM793 900H505V207H793V900ZM407 850H498V900H407V850ZM893 553V237H842C833.716 237 827 243.716 827 252V538C827 546.284 833.716 553 842 553H893ZM456 553H407V237H456C464.284 237 471 243.716 471 252V538C471 546.284 464.284 553 456 553Z" fill="black"/>
<path d="M0 560V553H328C336.284 553 343 546.284 343 538V252C343 243.716 336.284 237 328 237H0V230H330C341.046 230 350 238.954 350 250V540C350 551.046 341.046 560 330 560H0Z" fill="black"/>
<path d="M1300 553V560H970C958.954 560 950 551.046 950 540V250C950 238.954 958.954 230 970 230H1300V237H972C963.716 237 957 243.716 957 252V538C957 546.284 963.716 553 972 553H1300Z" fill="black"/>
</svg>
